X:557
T:Davy Nicknack #1
C:Joe Buchanan's Scottish Tome - Page 143.3
I:143 3
R:Reel
Z:Carl Allison
L:1/16
M:4/4
K:G
D2 | "G"GFGA B2B2 | "G"GFGA B2B2 | "Am"dcBc A2A2 | "Am"dcBc "D7"A2A2 |
"G"AGFG B2B2 | "G"GFGA "Em"B2B2 | "Am"dcBc "D7"AcBA | "G"G2B2 G4 :|
Bc |  "G"d2>c2 B2d2 | "G"g2g2 d4 | "Am"dcBc "D7"A2A2 | "Am"dcBc "D7"A2A2 |
"G"d2>c2 B2d2 | "G"g2g2 "Em"d4 | "Am"dcBc "D7"AcBA | "G"G2B2 G4 :|
